X: 3
T: CASTLES IN THE AIR
S: "COUNTRY DANCES OF TODAY 2", CDSS, May Gadd ed., 1951 p.13
R: hornpipe
Z: 2010 John Chambers <jc:trillian.mit.edu>
M: 4/4
L: 1/8
K: G
"A"|: D | "G"G2- G>B "D7"D3 E/F/ | "G"G>F G>A B2 G2 |\
"C"c>B c>e d>B A>G | "A(m)"A>B A>G "D7"E3 D | "G"G2- G>B "D7"D3 E/F/ |
"G"G>F G>A B2 G2 | c>d e>g "G"d>B G>A | "D7"B>c B>A G2 "B"::\
d2 | "C"e2g2 "G"d2g2 | "D7"c>B c>g "G"B4 | "C"c>B c>e "G"d>B A>G |
"A"A>B A>G "D7"E>c B>A |  "G"G2- G>B "D7"D3 E/F/ | "G"G>F G>A B2 G2 |\
"C"c>d e>g "G"d>B G>A | "D7"B>c B>A "G"G3 :|


%%sep 5 1 500

%%sep 1 1 500

